X: 1
T: Nancy
C: R-24
M: C|
Z: Transcribed to abc by Mary Lou Knack
R: reel
K: D
A2| "D"d2D2 F2A2| d2fe d3A| d2e2 gfed| "E7"c2e2 "A"A2Bc|
    "D"d2D2 F2A2| d2fe d3A| "G"B2g2 "A"fedc| "D"d6 :|
|:\
fg| "D"a3b a2gf| "A7"g3a g2fe| "D"f2d2 "G"gfed| "E7"c2e2 "A"A2Bc|
    "D"d2D2 F2A2| d2fe d2A2| "G"B2g2 "A"fedc| "D"d6 :|
|:\
Ac| "D"dcBA GFED| F2A2 d3A| dcde gfed| "E7"cdec "A"A2Bc|
    "D"dcBA GFED| F2A2 d3A| "G"B2g2 "A7"fedc| "D"d6 :|
|:\
fg| "D"aAaA a2gf| "A"gAgA g2fe| "D"fefd "G"gfed| "A"cdec A2Bc|
    "D"dcBA GFED| F2A2 d3A| "G"B2g2 "A7"fedc| "D"d6 :|
%%text 9/1/98
